X: 9
T: Fisher's
R: hornpipe
M: 4/4
L: 1/8
K: Dmaj
|: (3ABc |"D" dAFD "G" GBAG | "D" FDFD "G" GBAG | "D" FDFD "G" GBAG | "D" FDFD "A" E2 (3ABc |
"D" dAFD "G" GBAG | "D" FDFD "G" GBAG | "D" FGAB cdec | d2 d/e/d/c/ d2 :|
|: cd |"A" ecAc efge | "D" fdAd fgaf | "A" ecAc efgf | edcB A2 A2 | "D" BGDG BdcB |
"G" AFDF A2 GA | "D" BdcB "A" AGFE | "D"D2 d2 D2 :|


Tune 872	Setting 6861

